images/UpgradeGraphics/BCHUpgrades_Icons/1.svg

<svg xmlns="http://www.w3.org/2000/svg" fill="none" viewBox="89.54 77.84 432.33 683.46" xmlns:v="https://vecta.io/nano"><path d="M458.593 548.23c84.401 48.729 84.371 127.75-.066 176.5s-221.306 48.767-305.706.038-84.371-127.75.065-176.5 221.307-48.766 305.707-.038z" fill="#13b3d3"/><path d="M436.943 544.73C509.377 586.55 509.365 654.379 436.877 696.23C364.388 738.081 246.906 738.088 174.471 696.268C102.037 654.448 102.049 586.619 174.537 544.768C247.025 502.917 364.508 502.91 436.943 544.73Z" fill="#68ffd5" stroke="url(#B)" stroke-width="50"/><path d="M431.324 548.532c69.388 40.06 69.431 104.979.114 145s-181.76 39.995-251.147-.066-69.431-104.98-.114-145 181.76-39.995 251.147.066z" stroke="#fff" stroke-width="10" style="mix-blend-mode:screen"/><path d="M151 344.999h310v275.163l-2 15.997-6 13.327-7.5 10.765-9 9.227-9.5 7.177-10 6.663-10.5 5.639-12.5 6.151-13.5 4.614-14 4.101-13.5 2.563-27 3.588-27.5 1.025-32.5-3.588-15.5-2.563-13.5-3.588-14.5-5.127-14-5.638-8.5-4.614-8-5.126-14-9.739-5-4.614-5-5.638-7.5-12.303-5-8.714-1.5-5.393-3-14.192V344.999z" fill="url(#C)"/><g fill-rule="evenodd"><path d="M407.362 315.423l1.712 1.034c26.468 15.999 47.925 54.041 47.925 84.969v108.286c0 30.928-21.457 43.03-47.925 27.031L218.48 421.538c-26.468-15.999-47.925-54.041-47.925-84.969V228.283c0-30.928 21.457-43.03 47.925-27.031l2.412 1.458c.06-22.409 2.469-43.165 7.096-61.11 4.685-18.175 11.553-33.111 20.211-43.955s18.936-17.385 30.248-19.249 23.436.986 35.68 8.387 24.368 19.208 35.68 34.747 21.59 34.505 30.248 55.816 15.525 44.549 20.211 68.388c4.627 23.539 7.036 47.207 7.096 69.689zm-163.747-98.978c.06-16.868 1.881-32.492 5.366-46.008 3.544-13.745 8.738-25.041 15.285-33.242s14.322-13.149 22.877-14.558 17.724.746 26.984 6.343 18.429 14.527 26.984 26.279 16.329 26.095 22.876 42.213 11.742 33.692 15.286 51.721c3.484 17.728 5.306 35.555 5.366 52.494l-141.024-85.242z" fill="url(#D)"/><path d="M391.807 331.708l1.712 1.035c26.469 15.999 47.926 54.041 47.926 84.969v108.285c0 30.928-21.457 43.031-47.926 27.032L202.925 437.823C176.457 421.824 155 383.783 155 352.855V244.569c0-30.928 21.457-43.03 47.925-27.032l2.412 1.458c.06-22.408 2.47-43.164 7.096-61.11 4.686-18.174 11.553-33.11 20.211-43.955s18.936-17.385 30.248-19.249 23.436.986 35.68 8.388 24.368 19.207 35.68 34.746 21.59 34.505 30.248 55.816 15.526 44.55 20.211 68.389c4.627 23.538 7.036 47.207 7.096 69.688zM228.06 232.731c.06-16.868 1.882-32.492 5.366-46.008 3.544-13.745 8.738-25.041 15.286-33.243s14.321-13.148 22.876-14.557 17.724.746 26.984 6.343 18.429 14.526 26.985 26.278 16.328 26.096 22.876 42.213 11.741 33.692 15.285 51.721c3.485 17.729 5.306 35.555 5.366 52.495L228.06 232.731z" fill="url(#E)"/></g><mask id="A" fill="#fff"><path fill-rule="evenodd" d="M391.807 330.851l1.712 1.035c26.469 15.999 47.926 54.04 47.926 84.968V525.14c0 30.928-21.457 43.03-47.926 27.031L202.925 436.966C176.457 420.967 155 382.925 155 351.997V243.711c0-30.927 21.457-43.03 47.925-27.031l2.412 1.458c.06-22.409 2.47-43.165 7.096-61.11 4.686-18.175 11.553-33.11 20.211-43.955s18.936-17.385 30.248-19.249 23.436.986 35.68 8.387 24.368 19.208 35.68 34.747 21.59 34.505 30.248 55.816 15.526 44.549 20.211 68.388c4.627 23.539 7.036 47.207 7.096 69.689zM228.06 231.873c.06-16.867 1.882-32.491 5.366-46.007 3.544-13.746 8.738-25.041 15.286-33.243s14.321-13.148 22.876-14.558 17.724.746 26.984 6.343 18.429 14.527 26.985 26.279 16.328 26.096 22.876 42.213 11.741 33.692 15.285 51.721c3.485 17.729 5.306 35.555 5.366 52.495L228.06 231.873z"/></mask><g fill="#fff"><path d="M391.807 330.851l-4.279-2.571.014 4.992 4.265 2.579v-5zm1.712 221.32v5-5zM202.925 436.966v-5 5zm0-220.286v5-5zm2.412 1.458v5l4.266 2.578.013-4.976-4.279-2.602zm7.096-61.11l-4.141-3.764h0l4.141 3.764zm20.211-43.955l-3.622-4.852 3.622 4.852zm30.248-19.249l2.353 5.599h0l-2.353-5.599zm71.36 43.134l2.353-2.754-2.353 2.754zm30.248 55.816l3.622-.474-3.622.474zm20.211 68.388l4.141 1.242h0l-4.141-1.242zM228.06 231.873l-4.279-2.607-.017 5.01 4.296 2.597v-5zm5.366-46.007l-4.14-3.764 4.14 3.764zm15.286-33.243l3.621 4.852-3.621-4.852zm22.876-14.558l2.353 5.599h0l-2.353-5.599zm53.969 32.622l-2.353 2.754h0l2.353-2.754zm22.876 42.213l-3.622.474 3.622-.474zm15.285 51.721l4.141 1.242h0l-4.141-1.242zm5.366 52.495v5l4.297 2.597-.018-5.032-4.279-2.565zm22.723 18.735l1.712 1.035v-10l-1.712-1.035v10zm1.712 1.035c24.105 14.57 43.647 49.215 43.647 77.382l8.558 5.173c0-33.69-23.373-75.128-52.205-92.555v10zm43.647 77.382v108.286l8.558 5.173V419.441l-8.558-5.173zm0 108.286c0 28.166-19.541 39.188-43.647 24.617v10c28.832 17.428 52.205 4.245 52.205-29.444l-8.558-5.173zm-43.647 24.617L202.925 431.966v10l190.594 115.205v-10zM202.925 431.966c-24.105-14.571-43.646-49.216-43.646-77.382l-8.558-5.173c0 33.689 23.373 75.127 52.204 92.555v-10zm-43.646-77.382V246.298l-8.558-5.173v108.286l8.558 5.173zm0-108.286c0-28.167 19.541-39.188 43.646-24.618v-10c-28.831-17.427-52.204-4.244-52.204 29.445l8.558 5.173zm43.646-24.618l2.412 1.458v-10l-2.412-1.458v10zm5.367-68.416c-4.721 18.314-7.173 39.463-7.234 62.272l8.558 5.204c.059-22.009 2.426-42.371 6.958-59.948l-8.282-7.528zm20.73-45.043c-8.921 11.175-15.949 26.5-20.73 45.043l8.282 7.528c4.59-17.806 11.298-32.353 19.692-42.867l-7.244-9.704zm31.517-19.996c-11.914 1.963-22.597 8.824-31.517 19.996l7.244 9.704c8.396-10.517 18.27-16.738 28.979-18.503l-4.706-11.197zm38.033 8.986c-13.168-7.959-26.099-10.952-38.033-8.986l4.706 11.197c10.69-1.761 22.007.947 33.327 7.789v-10zm38.033 36.993c-11.934-16.393-24.865-29.033-38.033-36.993v10c11.32 6.843 22.637 17.816 33.327 32.501l4.706-5.508zm31.517 58.096c-8.919-21.954-19.603-41.73-31.517-58.096l-4.706 5.508c10.71 14.711 20.583 32.868 28.98 53.536l7.243-.948zm20.73 70.104c-4.781-24.322-11.808-48.143-20.73-70.104l-7.243.948c8.393 20.661 15.101 43.317 19.692 66.673l8.281 2.483zm7.234 71.018c-.061-22.883-2.513-46.996-7.234-71.018l-8.281-2.483c4.531 23.055 6.898 46.279 6.957 68.359l8.558 5.142zM232.339 234.48c.059-16.469 1.838-31.701 5.228-44.851l-8.281-7.527c-3.579 13.882-5.443 29.899-5.505 47.164l8.558 5.214zm5.228-44.851c3.449-13.376 8.483-24.283 14.766-32.154l-7.243-9.704c-6.812 8.532-12.166 20.217-15.804 34.331l8.281 7.527zm14.766-32.154c6.287-7.874 13.655-12.501 21.608-13.811l-4.706-11.197c-9.157 1.508-17.336 6.775-24.145 15.304l7.243 9.704zm21.608-13.811c7.933-1.307 16.295.706 24.631 5.744v-10c-10.184-6.155-20.16-8.453-29.337-6.941l4.706 11.197zm24.631 5.744c8.336 5.039 16.698 13.135 24.632 24.033l4.705-5.508c-9.176-12.606-19.153-22.369-29.337-28.525v10zm24.632 24.033c7.952 10.924 15.321 24.459 21.607 39.933l7.243-.948c-6.809-16.761-14.987-31.914-24.145-44.493l-4.705 5.508zm21.607 39.933c6.284 15.467 11.318 32.46 14.766 50.005l8.282 2.484c-3.639-18.513-8.993-36.67-15.805-53.437l-7.243.948zm14.766 50.005c3.39 17.248 5.17 34.631 5.228 51.171l8.558 5.131c-.061-17.339-1.925-35.609-5.504-53.818l-8.282-2.484zM228.06 236.873l141.024 85.243v-10L228.06 226.873v10z" mask="url(#A)"/><path d="M287.305 379.831c6.509-.827 10.968-7.848 10.968-19.06 0-15.912-8.981-34.239-20.058-40.935s-20.059.775-20.059 16.687c0 11.395 4.606 24.029 11.289 32.743l-.109 7.387c0 26.388 4.048 50.226 9.043 53.245s9.042-15.926 9.042-42.313c0-2.616-.039-5.206-.116-7.754zm65.562 195.81c-5.74-3.314-15.045-3.314-20.785 0l-30.409 17.557-34.506-20.184c-5.227-3.057-13.761-3.092-19.061-.077l-11.018 6.267c-5.301 3.014-5.361 7.937-.134 10.994l34.729 20.315-30.881 17.829c-5.74 3.313-5.74 8.686 0 12l11.31 6.53c5.74 3.313 15.045 3.313 20.785 0l30.671-17.708 33.605 19.657c5.227 3.057 13.761 3.091 19.061.077l11.018-6.267c5.301-3.015 5.36-7.937.134-10.995l-33.828-19.787 30.619-17.678c5.74-3.314 5.74-8.687 0-12l-11.31-6.53z" style="mix-blend-mode:screen" fill-rule="evenodd"/></g><defs><linearGradient id="B" x1="152.886" y1="532.268" x2="305.707" y2="796.961" href="#F"><stop offset="1" stop-color="#13b3d3" stop-opacity=".66"/></linearGradient><linearGradient id="C" x1="306.113" y1="344.999" x2="306.041" y2="620.162" href="#F"><stop offset=".276" stop-color="#9fffd4" stop-opacity="0"/><stop offset=".573" stop-color="#9fffd4" stop-opacity=".129"/><stop offset="1" stop-color="#9fffd4" stop-opacity=".53"/></linearGradient><linearGradient id="D" x1="357.173" y1="127.373" x2="154.001" y2="343.51" href="#F"><stop offset="1" stop-color="#13b3d3"/></linearGradient><linearGradient id="E" x1="438.812" y1="223.404" x2="149.812" y2="238.363" href="#F"><stop stop-color="#13edb1"/><stop offset="1" stop-color="#13b3d3"/></linearGradient><linearGradient id="F" gradientUnits="userSpaceOnUse"/></defs></svg>

<svg xmlns="http://www.w3.org/2000/svg" fill="none" viewBox="89.54 77.84 432.33 683.46">
<g id="Group 138">
<path id="Ellipse 29" d="M458.593 548.23C542.994 596.959 542.964 675.98 458.527 724.73C374.091 773.48 237.221 773.497 152.821 724.768C68.4201 676.039 68.4495 597.018 152.886 548.268C237.323 499.519 374.193 499.502 458.593 548.23Z" fill="#13B3D3"/>
<path id="Ellipse 27" d="M436.943 544.73C509.377 586.55 509.365 654.379 436.877 696.23C364.388 738.081 246.906 738.088 174.471 696.268C102.037 654.448 102.049 586.619 174.537 544.768C247.025 502.917 364.508 502.91 436.943 544.73Z" fill="#68FFD5" stroke="url(#paint0_linear_169_5)" stroke-width="50"/>
<g id="Ellipse 28" style="mix-blend-mode:screen">
<path d="M431.324 548.532C500.712 588.592 500.755 653.511 431.438 693.532C362.12 733.552 249.678 733.527 180.291 693.466C110.903 653.405 110.86 588.486 180.177 548.466C249.494 508.446 361.937 508.471 431.324 548.532Z" stroke="white" stroke-width="10"/>
</g>
<path id="Rectangle 153" d="M151 344.999H461V620.162L459 636.159L453 649.486L445.5 660.251L436.5 669.478L427 676.655L417 683.318L406.5 688.957L394 695.108L380.5 699.722L366.5 703.823L353 706.386L326 709.974L298.5 710.999L266 707.411L250.5 704.848L237 701.26L222.5 696.133L208.5 690.495L200 685.881L192 680.755L178 671.016L173 666.402L168 660.764L160.5 648.461L155.5 639.747L154 634.354L151 620.162V344.999Z" fill="url(#paint1_linear_169_5)"/>
<path id="Union" fill-rule="evenodd" clip-rule="evenodd" d="M407.362 315.423L409.074 316.457C435.542 332.456 456.999 370.498 456.999 401.426V509.712C456.999 540.64 435.542 552.742 409.074 536.743L218.48 421.538C192.012 405.539 170.555 367.497 170.555 336.569V228.283C170.555 197.355 192.012 185.253 218.48 201.252L220.892 202.71C220.952 180.301 223.361 159.545 227.988 141.6C232.673 123.425 239.541 108.489 248.199 97.6448C256.857 86.8003 267.135 80.2594 278.447 78.3957C289.759 76.532 301.883 79.382 314.127 86.7829C326.371 94.1839 338.495 105.991 349.807 121.53C361.119 137.068 371.397 156.035 380.055 177.346C388.713 198.657 395.58 221.895 400.266 245.734C404.893 269.273 407.302 292.941 407.362 315.423ZM243.615 216.445C243.675 199.577 245.496 183.953 248.981 170.437C252.525 156.692 257.719 145.396 264.266 137.195C270.814 128.993 278.588 124.046 287.143 122.637C295.698 121.228 304.867 123.383 314.127 128.98C323.387 134.577 332.556 143.507 341.111 155.259C349.666 167.01 357.44 181.354 363.987 197.472C370.535 213.589 375.729 231.164 379.273 249.193C382.757 266.921 384.579 284.748 384.639 301.687L243.615 216.445Z" fill="url(#paint2_linear_169_5)"/>
<path id="Union_2" fill-rule="evenodd" clip-rule="evenodd" d="M391.807 331.708L393.519 332.743C419.988 348.742 441.445 386.784 441.445 417.712V525.997C441.445 556.925 419.988 569.028 393.519 553.029L202.925 437.823C176.457 421.824 155 383.783 155 352.855V244.569C155 213.641 176.457 201.539 202.925 217.537L205.337 218.995C205.397 196.587 207.807 175.831 212.433 157.885C217.119 139.711 223.986 124.775 232.644 113.93C241.302 103.086 251.58 96.5451 262.892 94.6814C274.204 92.8177 286.328 95.6677 298.572 103.069C310.816 110.47 322.94 122.276 334.252 137.815C345.564 153.354 355.842 172.32 364.5 193.631C373.158 214.943 380.026 238.181 384.711 262.02C389.338 285.558 391.747 309.227 391.807 331.708ZM228.06 232.731C228.12 215.863 229.942 200.239 233.426 186.723C236.97 172.978 242.164 161.682 248.712 153.48C255.26 145.279 263.033 140.332 271.588 138.923C280.143 137.513 289.312 139.669 298.572 145.266C307.832 150.863 317.001 159.792 325.557 171.544C334.112 183.296 341.885 197.64 348.433 213.757C354.98 229.875 360.174 247.449 363.718 265.478C367.203 283.207 369.024 301.033 369.084 317.973L228.06 232.731Z" fill="url(#paint3_linear_169_5)"/>
<g id="Union_3">
<mask id="path-7-inside-1_169_5" fill="white">
<path fill-rule="evenodd" clip-rule="evenodd" d="M391.807 330.851L393.519 331.886C419.988 347.885 441.445 385.926 441.445 416.854V525.14C441.445 556.068 419.988 568.17 393.519 552.171L202.925 436.966C176.457 420.967 155 382.925 155 351.997V243.711C155 212.784 176.457 200.681 202.925 216.68L205.337 218.138C205.397 195.729 207.807 174.973 212.433 157.028C217.119 138.853 223.986 123.918 232.644 113.073C241.302 102.228 251.58 95.6876 262.892 93.8239C274.204 91.9603 286.328 94.8102 298.572 102.211C310.816 109.612 322.94 121.419 334.252 136.958C345.564 152.497 355.842 171.463 364.5 192.774C373.158 214.085 380.026 237.323 384.711 261.162C389.338 284.701 391.747 308.369 391.807 330.851ZM228.06 231.873C228.12 215.006 229.942 199.382 233.426 185.866C236.97 172.12 242.164 160.825 248.712 152.623C255.26 144.421 263.033 139.475 271.588 138.065C280.143 136.656 289.312 138.811 298.572 144.408C307.832 150.006 317.001 158.935 325.557 170.687C334.112 182.439 341.885 196.783 348.433 212.9C354.98 229.017 360.174 246.592 363.718 264.621C367.203 282.35 369.024 300.176 369.084 317.116L228.06 231.873Z"/>
</mask>
<path d="M391.807 330.851L387.528 328.28L387.542 333.272L391.807 335.851V330.851ZM393.519 552.171V557.171V552.171ZM202.925 436.966V431.966V436.966ZM202.925 216.68V221.68V216.68ZM205.337 218.138V223.138L209.603 225.716L209.616 220.74L205.337 218.138ZM212.433 157.028L208.292 153.264V153.264L212.433 157.028ZM232.644 113.073L229.022 108.221L232.644 113.073ZM262.892 93.8239L265.245 99.4224L265.245 99.4224L262.892 93.8239ZM334.252 136.958L336.605 134.204L334.252 136.958ZM364.5 192.774L368.122 192.3L364.5 192.774ZM384.711 261.162L388.852 262.404V262.404L384.711 261.162ZM228.06 231.873L223.781 229.266L223.764 234.276L228.06 236.873V231.873ZM233.426 185.866L229.286 182.102L233.426 185.866ZM248.712 152.623L252.333 157.475L248.712 152.623ZM271.588 138.065L273.941 143.664L273.941 143.664L271.588 138.065ZM325.557 170.687L323.204 173.441L323.204 173.441L325.557 170.687ZM348.433 212.9L344.811 213.374L348.433 212.9ZM363.718 264.621L367.859 265.863V265.863L363.718 264.621ZM369.084 317.116V322.116L373.381 324.713L373.363 319.681L369.084 317.116ZM391.807 335.851L393.519 336.886V326.886L391.807 325.851V335.851ZM393.519 336.886C417.624 351.456 437.166 386.101 437.166 414.268L445.724 419.441C445.724 385.751 422.351 344.313 393.519 326.886V336.886ZM437.166 414.268V522.554L445.724 527.727V419.441L437.166 414.268ZM437.166 522.554C437.166 550.72 417.625 561.742 393.519 547.171V557.171C422.351 574.599 445.724 561.416 445.724 527.727L437.166 522.554ZM393.519 547.171L202.925 431.966V441.966L393.519 557.171V547.171ZM202.925 431.966C178.82 417.395 159.279 382.75 159.279 354.584L150.721 349.411C150.721 383.1 174.094 424.538 202.925 441.966V431.966ZM159.279 354.584V246.298L150.721 241.125V349.411L159.279 354.584ZM159.279 246.298C159.279 218.131 178.82 207.11 202.925 221.68V211.68C174.094 194.253 150.721 207.436 150.721 241.125L159.279 246.298ZM202.925 221.68L205.337 223.138V213.138L202.925 211.68V221.68ZM208.292 153.264C203.571 171.578 201.119 192.727 201.058 215.536L209.616 220.74C209.675 198.731 212.042 178.369 216.574 160.792L208.292 153.264ZM229.022 108.221C220.101 119.396 213.073 134.721 208.292 153.264L216.574 160.792C221.164 142.986 227.872 128.439 236.266 117.925L229.022 108.221ZM260.539 88.2255C248.625 90.1884 237.942 97.049 229.022 108.221L236.266 117.925C244.662 107.408 254.536 101.187 265.245 99.4224L260.539 88.2255ZM298.572 97.2112C285.404 89.2518 272.473 86.2594 260.539 88.2255L265.245 99.4224C275.935 97.6612 287.252 100.369 298.572 107.211V97.2112ZM336.605 134.204C324.671 117.811 311.74 105.171 298.572 97.2112V107.211C309.892 114.054 321.209 125.027 331.899 139.712L336.605 134.204ZM368.122 192.3C359.203 170.346 348.519 150.57 336.605 134.204L331.899 139.712C342.609 154.423 352.482 172.58 360.879 193.248L368.122 192.3ZM388.852 262.404C384.071 238.082 377.044 214.261 368.122 192.3L360.879 193.248C369.272 213.909 375.98 236.565 380.571 259.921L388.852 262.404ZM396.086 333.422C396.025 310.539 393.573 286.426 388.852 262.404L380.571 259.921C385.102 282.976 387.469 306.2 387.528 328.28L396.086 333.422ZM232.339 234.48C232.398 218.011 234.177 202.779 237.567 189.629L229.286 182.102C225.707 195.984 223.843 212.001 223.781 229.266L232.339 234.48ZM237.567 189.629C241.016 176.253 246.05 165.346 252.333 157.475L245.09 147.771C238.278 156.303 232.924 167.988 229.286 182.102L237.567 189.629ZM252.333 157.475C258.62 149.601 265.988 144.974 273.941 143.664L269.235 132.467C260.078 133.975 251.899 139.242 245.09 147.771L252.333 157.475ZM273.941 143.664C281.874 142.357 290.236 144.37 298.572 149.408V139.408C288.388 133.253 278.412 130.955 269.235 132.467L273.941 143.664ZM298.572 149.408C306.908 154.447 315.27 162.543 323.204 173.441L327.909 167.933C318.733 155.327 308.756 145.564 298.572 139.408V149.408ZM323.204 173.441C331.156 184.365 338.525 197.9 344.811 213.374L352.054 212.426C345.245 195.665 337.067 180.512 327.909 167.933L323.204 173.441ZM344.811 213.374C351.095 228.841 356.129 245.834 359.577 263.379L367.859 265.863C364.22 247.35 358.866 229.193 352.054 212.426L344.811 213.374ZM359.577 263.379C362.967 280.627 364.747 298.01 364.805 314.55L373.363 319.681C373.302 302.342 371.438 284.072 367.859 265.863L359.577 263.379ZM228.06 236.873L369.084 322.116V312.116L228.06 226.873V236.873Z" fill="white" mask="url(#path-7-inside-1_169_5)"/>
</g>
<g id="Union_4" style="mix-blend-mode:screen">
<path fill-rule="evenodd" clip-rule="evenodd" d="M287.305 379.831C293.814 379.004 298.273 371.983 298.273 360.771C298.273 344.859 289.292 326.532 278.215 319.836C267.137 313.14 258.156 320.611 258.156 336.523C258.156 347.918 262.762 360.552 269.445 369.266C269.373 371.651 269.336 374.118 269.336 376.653C269.336 403.041 273.384 426.879 278.379 429.898C283.373 432.917 287.421 413.972 287.421 387.585C287.421 384.969 287.382 382.379 287.305 379.831Z" fill="white"/>
</g>
<g id="Union_5" style="mix-blend-mode:screen">
<path fill-rule="evenodd" clip-rule="evenodd" d="M352.867 575.641C347.127 572.327 337.822 572.327 332.082 575.641L301.673 593.198L267.167 573.014C261.94 569.957 253.406 569.922 248.106 572.937L237.088 579.204C231.787 582.218 231.727 587.141 236.954 590.198L271.683 610.513L240.802 628.342C235.062 631.655 235.062 637.028 240.802 640.342L252.112 646.872C257.852 650.185 267.157 650.185 272.897 646.872L303.568 629.164L337.173 648.821C342.4 651.878 350.934 651.912 356.234 648.898L367.252 642.631C372.553 639.616 372.612 634.694 367.386 631.636L333.558 611.849L364.177 594.171C369.917 590.857 369.917 585.484 364.177 582.171L352.867 575.641Z" fill="white"/>
</g>
</g>
<defs>
<linearGradient id="paint0_linear_169_5" x1="152.886" y1="532.268" x2="305.707" y2="796.961" gradientUnits="userSpaceOnUse">
<stop offset="1" stop-color="#13B3D3" stop-opacity="0.66"/>
</linearGradient>
<linearGradient id="paint1_linear_169_5" x1="306.113" y1="344.999" x2="306.041" y2="620.162" gradientUnits="userSpaceOnUse">
<stop offset="0.276474" stop-color="#9FFFD4" stop-opacity="0"/>
<stop offset="0.573136" stop-color="#9FFFD4" stop-opacity="0.129348"/>
<stop offset="1" stop-color="#9FFFD4" stop-opacity="0.53"/>
</linearGradient>
<linearGradient id="paint2_linear_169_5" x1="357.173" y1="127.373" x2="154.001" y2="343.51" gradientUnits="userSpaceOnUse">
<stop offset="1" stop-color="#13B3D3"/>
</linearGradient>
<linearGradient id="paint3_linear_169_5" x1="438.812" y1="223.404" x2="149.812" y2="238.363" gradientUnits="userSpaceOnUse">
<stop stop-color="#13EDB1"/>
<stop offset="1" stop-color="#13B3D3"/>
</linearGradient>
</defs>
</svg>
